svgs/sharp-light/plus.svg

<svg xmlns="http://www.w3.org/2000/svg" viewBox="0 0 448 512"><!--! Font Awesome Pro 6.6.0 by @fontawesome - https://fontawesome.com License - https://fontawesome.com/license (Commercial License) Copyright 2024 Fonticons, Inc. --><path d="M240 64l0-16-32 0 0 16 0 176L32 240l-16 0 0 32 16 0 176 0 0 176 0 16 32 0 0-16 0-176 176 0 16 0 0-32-16 0-176 0 0-176z"/></svg>

<svg xmlns="http://www.w3.org/2000/svg" viewBox="0 0 448 512"><!--! Font Awesome Pro 6.4.0 by @fontawesome - https://fontawesome.com License - https://fontawesome.com/license (Commercial License) Copyright 2023 Fonticons, Inc. --><path d="M240 64V48H208V64 240H32 16v32H32 208V448v16h32V448 272H416h16V240H416 240V64z"/></svg>
